lib/svgs/comments.svg

<svg xmlns="http://www.w3.org/2000/svg" viewBox="0 0 20 20">
    <path fill="#000" fill-rule="evenodd" d="M6.47083442,14.7913 L10.606644,14.7913001 L14.540208,17.417549 C14.9389431,17.6833398 15.473,17.3975019 15.473,16.9183 L15.4730004,14.7913001 L17.6,14.7913 C17.9313708,14.7913 18.2,14.5226708 18.2,14.1913 L18.2,5.3273 C18.2,4.99592915 17.9313708,4.7273 17.6,4.7273 L15.473,4.7273 L15.473,2.6 C15.473,2.26862915 15.2043708,2 14.873,2 L2.6,2 C2.26862915,2 2,2.26862915 2,2.6 L2,11.464 C2,11.7953708 2.26862915,12.064 2.6,12.064 L4.72799993,12.0640001 L4.728,14.873 C4.728,15.3610399 5.27965445,15.6449104 5.67677195,15.3612193 L6.47083442,14.7913 L6.47083442,14.7913 L6.47083442,14.7913 L6.47083442,14.7913 Z M8.1427815,13.5913 L10.270752,12.0640001 L14.873,12.064 C15.2043708,12.064 15.473,11.7953708 15.473,11.464 L15.473,5.92730001 L16.9999998,5.92730005 L16.9999998,13.5913003 L14.873,13.5913 C14.5416292,13.5913 14.273,13.8599292 14.273,14.1913 L14.2941432,15.8113595 L11.114792,13.692051 C11.0162373,13.626356 10.9004435,13.5913 10.782,13.5913 M10.1,10.864 C9.97493403,10.864 9.85299409,10.9030815 9.75122805,10.9757807 L5.928,13.7034286 L5.928,11.464 C5.928,11.1326292 5.65937085,10.864 5.328,10.864 L3.2284048,10.8639999 L3.2284048,3.2 L14.2867115,3.2 L14.2867115,10.864 L10.1,10.864 L10.1,10.864 Z"/>
</svg>

<svg xmlns="http://www.w3.org/2000/svg" viewBox="0 0 20 20">
    <path fill="#000" fill-rule="evenodd" d="M6.47 14.791h4.137l3.933 2.627a.6.6 0 0 0 .933-.5v-2.127H17.6a.6.6 0 0 0 .6-.6V5.327a.6.6 0 0 0-.6-.6h-2.127V2.6a.6.6 0 0 0-.6-.6H2.6a.6.6 0 0 0-.6.6v8.864a.6.6 0 0 0 .6.6h2.128v2.809a.6.6 0 0 0 .949.488l.794-.57m1.672-1.2l2.128-1.527h4.602a.6.6 0 0 0 .6-.6V5.927H17v7.664h-2.127a.6.6 0 0 0-.6.6l.021 1.62-3.18-2.119a.6.6 0 0 0-.332-.1m-.682-2.728a.6.6 0 0 0-.349.112l-3.823 2.727v-2.239a.6.6 0 0 0-.6-.6h-2.1V3.2h11.059v7.664H10.1"/>
</svg>
